X:1
T:Second Degree II - Contentement
%%singleline true
%%SYMBOL_SCALE_FACTOR 2
%%BAR_OFFSET 0.3
%%score { 1 | 2 }
L:1/4
Q:1/4=120
M:4/4
I:linebreak $
K:C
V:1 treble stafflines=5
V:2 bass
V:1
    (c e g2) | (c e g2) | (f e d e | f e d e) | (c e g2) | (c e g2) |
    (f e d f | e d c) (e | d e c e | d e c) (e | d2 e2 | c4) |]
V:2
    C, G, E, G, | C, G, E, G, | D, G, F, G, | D, G, F, G, | C, G, E, G, | C, G, E, G, |
    D, G, F, G, | C, G, C,2 | G,2 C,2 | G,2 C,2 | G,4 | C,4 |]
 